style-guide/assets/wds-icons-calendar-small.svg

<svg xmlns="http://www.w3.org/2000/svg" xmlns:xlink="http://www.w3.org/1999/xlink" width="18" height="18" viewBox="0 0 18 18">
  <defs>
    <path id="calendar-a" d="M12.2941176,15.0588235 L15.1176471,15.0588235 L15.1176471,13.1764706 L12.2941176,13.1764706 L12.2941176,15.0588235 Z M2.88235294,15.0588235 L5.70588235,15.0588235 L5.70588235,13.1764706 L2.88235294,13.1764706 L2.88235294,15.0588235 Z M5.70588235,3.76470588 L5.70588235,4.70588235 C5.70588235,5.22635294 6.12752941,5.64705882 6.64705882,5.64705882 C7.16658824,5.64705882 7.58823529,5.22635294 7.58823529,4.70588235 L7.58823529,3.76470588 L10.4117647,3.76470588 L10.4117647,4.70588235 C10.4117647,5.22635294 10.8334118,5.64705882 11.3529412,5.64705882 C11.8724706,5.64705882 12.2941176,5.22635294 12.2941176,4.70588235 L12.2941176,3.76470588 L15.1176471,3.76470588 L15.1176471,7.52941176 L2.88235294,7.52941176 L2.88235294,3.76470588 L5.70588235,3.76470588 Z M12.2941176,11.2941176 L15.1176471,11.2941176 L15.1176471,9.41176471 L12.2941176,9.41176471 L12.2941176,11.2941176 Z M2.88235294,11.2941176 L5.70588235,11.2941176 L5.70588235,9.41176471 L2.88235294,9.41176471 L2.88235294,11.2941176 Z M7.58823529,15.0588235 L10.4117647,15.0588235 L10.4117647,13.1764706 L7.58823529,13.1764706 L7.58823529,15.0588235 Z M7.58823529,11.2941176 L10.4117647,11.2941176 L10.4117647,9.41176471 L7.58823529,9.41176471 L7.58823529,11.2941176 Z M16.0588235,1.88235294 L12.2941176,1.88235294 L12.2941176,0.941176471 C12.2941176,0.420705882 11.8724706,0 11.3529412,0 C10.8334118,0 10.4117647,0.420705882 10.4117647,0.941176471 L10.4117647,1.88235294 L7.58823529,1.88235294 L7.58823529,0.941176471 C7.58823529,0.420705882 7.16658824,0 6.64705882,0 C6.12752941,0 5.70588235,0.420705882 5.70588235,0.941176471 L5.70588235,1.88235294 L1.94117647,1.88235294 C1.42164706,1.88235294 1,2.30305882 1,2.82352941 L1,16 C1,16.5204706 1.42164706,16.9411765 1.94117647,16.9411765 L16.0588235,16.9411765 C16.5783529,16.9411765 17,16.5204706 17,16 L17,2.82352941 C17,2.30305882 16.5783529,1.88235294 16.0588235,1.88235294 Z"/>
  </defs>
  <use fill-rule="evenodd" xlink:href="#calendar-a"/>
</svg>

<svg viewBox="0 0 18 18" xmlns="http://www.w3.org/2000/svg">
  <path d="M12.294 15.059h2.824v-1.883h-2.824v1.883zm-9.412 0h2.824v-1.883H2.882v1.883zM5.706 3.765v.94a.94.94 0 1 0 1.882 0v-.94h2.824v.94a.94.94 0 1 0 1.882 0v-.94h2.824v3.764H2.882V3.765h2.824zm6.588 7.53h2.824V9.411h-2.824v1.882zm-9.412 0h2.824V9.411H2.882v1.882zm4.706 3.764h2.824v-1.883H7.588v1.883zm0-3.765h2.824V9.412H7.588v1.882zm8.47-9.412h-3.764v-.94a.94.94 0 1 0-1.882 0v.94H7.588v-.94a.94.94 0 1 0-1.882 0v.94H1.94a.94.94 0 0 0-.94.942V16c0 .52.422.941.941.941H16.06A.94.94 0 0 0 17 16V2.824a.94.94 0 0 0-.941-.942z"/>
</svg>
